src/assets/images/benefits/03.svg

<svg width="160" height="160" viewBox="0 0 160 160" fill="none" xmlns="http://www.w3.org/2000/svg">
<rect x="1" y="1" width="158" height="158" rx="39" fill="#171E25"/>
<g filter="url(#filter0_d_2_2389)">
<rect x="67" y="69" width="37" height="22" fill="#10151A"/>
<path d="M80 52C64.5635 52 52 64.5148 52 80C52 95.4365 64.5148 108 80 108C95.4852 108 108 95.4852 108 80C108 64.5635 95.4365 52 80 52ZM100.501 81.5096H87.4991C86.6226 85.7948 82.4835 88.5704 78.1983 87.6939C73.913 86.8174 71.1374 82.6783 72.0139 78.393C72.8904 74.1078 77.0296 71.3322 81.3148 72.2087C84.5774 72.8417 87.0609 75.4713 87.5965 78.7826H100.501C101.28 78.7826 101.864 79.4156 101.864 80.1461C101.864 80.9252 101.231 81.5096 100.501 81.5096Z" fill="#008C73"/>
</g>
<rect x="1" y="1" width="158" height="158" rx="39" stroke="#2A3744" stroke-width="2"/>
<defs>
<filter id="filter0_d_2_2389" x="5" y="9" width="150" height="150" filterUnits="userSpaceOnUse" color-interpolation-filters="sRGB">
<feFlood flood-opacity="0" result="BackgroundImageFix"/>
<feColorMatrix in="SourceAlpha" type="matrix" values="0 0 0 0 0 0 0 0 0 0 0 0 0 0 0 0 0 0 127 0" result="hardAlpha"/>
<feOffset dy="4"/>
<feGaussianBlur stdDeviation="23.5"/>
<feComposite in2="hardAlpha" operator="out"/>
<feColorMatrix type="matrix" values="0 0 0 0 0 0 0 0 0 0.54902 0 0 0 0 0.45098 0 0 0 0.3 0"/>
<feBlend mode="normal" in2="BackgroundImageFix" result="effect1_dropShadow_2_2389"/>
<feBlend mode="normal" in="SourceGraphic" in2="effect1_dropShadow_2_2389" result="shape"/>
</filter>
</defs>
</svg>

<svg width="160" height="160" fill="none" xmlns="http://www.w3.org/2000/svg"><rect x="1" y="1" width="158" height="158" rx="39" fill="#171E25"/><g filter="url(#filter0_d_2_2389)"><path fill="#10151A" d="M67 69h37v22H67z"/><path d="M80 52c-15.436 0-28 12.515-28 28 0 15.436 12.515 28 28 28s28-12.515 28-28c0-15.436-12.564-28-28-28zm20.501 29.51H87.499c-.876 4.285-5.015 7.06-9.3 6.184-4.286-.877-7.062-5.016-6.185-9.301.876-4.285 5.016-7.06 9.3-6.184 3.263.633 5.747 3.262 6.283 6.574H100.5a1.36 1.36 0 011.363 1.363 1.36 1.36 0 01-1.363 1.364z" fill="#008C73"/></g><rect x="1" y="1" width="158" height="158" rx="39" stroke="#2A3744" stroke-width="2"/><defs><filter id="filter0_d_2_2389" x="5" y="9" width="150" height="150" filterUnits="userSpaceOnUse" color-interpolation-filters="sRGB"><feFlood flood-opacity="0" result="BackgroundImageFix"/><feColorMatrix in="SourceAlpha" values="0 0 0 0 0 0 0 0 0 0 0 0 0 0 0 0 0 0 127 0" result="hardAlpha"/><feOffset dy="4"/><feGaussianBlur stdDeviation="23.5"/><feComposite in2="hardAlpha" operator="out"/><feColorMatrix values="0 0 0 0 0 0 0 0 0 0.54902 0 0 0 0 0.45098 0 0 0 0.3 0"/><feBlend in2="BackgroundImageFix" result="effect1_dropShadow_2_2389"/><feBlend in="SourceGraphic" in2="effect1_dropShadow_2_2389" result="shape"/></filter></defs></svg>
